X: 24
T: Temperance Reel
T: Teetolaler's Reel
O: Ryan 1883
R: reel
B: Ryan’s Mammoth Collection, 1883
Z: 1997 by John Chambers <jc:trillian.mit.edu>
M: C|
L: 1/8
K: G
|: "G"G2GF GABc | dBge "D/F#"dBAc | "Em"BEED EFGA |1,3 "D7"BGAF GFED :|2,4 "D7"BGAF "G"G4 :|
|: "Em"Beed e3f | geaf gfed |1,3 "D"Bdde d3e | fdaf gefd :|2,4 "Em"BEED EFGA | "D7"BGAF "G"G4 :|

%%sep 2 1 500

